resources/svg/bitcoin.svg

<svg xmlns="http://www.w3.org/2000/svg" viewBox="0 0 24 24" fill="currentColor"><path fill="currentColor" fill-rule="evenodd" d="M23.6408156,14.9046858 C22.0378949,21.3339956 15.5260763,25.2467873 9.09601649,23.6434916 C2.66858193,22.0405708 -1.24420981,15.5283772 0.359460996,9.09944253 C1.96163164,2.66938268 8.47345019,-1.24378409 14.9016348,0.359136628 C21.3313196,1.96205735 25.2437363,8.47500102 23.6408156,14.9046858 L23.6408156,14.9046858 Z M17.2913894,10.2916945 C17.5302898,8.69477443 16.3144103,7.83630799 14.6518582,7.263622 L15.1911657,5.1003916 L13.8744004,4.77223165 L13.3493445,6.87845598 C13.0031826,6.79219679 12.6476448,6.71081312 12.2943571,6.63017953 L12.8231635,4.51007873 L11.5071483,4.18191878 L10.9674658,6.3443991 C10.6809353,6.27914215 10.3996553,6.21463528 10.1266263,6.14675305 L10.1281264,6.14000233 L8.31218301,5.68657903 L7.9618957,7.09297883 C7.9618957,7.09297883 8.93887476,7.31687767 8.91824756,7.33075415 C9.45155436,7.46389333 9.54793963,7.81680592 9.53181291,8.09658572 L8.91749748,10.5609732 C8.9542514,10.5703492 9.00188147,10.5838506 9.05438706,10.6048529 C9.01050739,10.5939767 8.96362739,10.5819754 8.91524724,10.5703492 L8.05415553,14.0225919 C7.98889858,14.1846091 7.82350596,14.427635 7.45071626,14.3353752 C7.46384266,14.3545022 6.49361432,14.0964747 6.49361432,14.0964747 L5.8399197,15.6037603 L7.5534772,16.0309308 C7.87226116,16.1108143 8.18466943,16.1944482 8.49220218,16.2732066 L7.94726915,18.4611896 L9.26253423,18.7893496 L9.80221671,16.624619 C10.161505,16.7221294 10.5102921,16.812139 10.8515785,16.896898 L10.3137712,19.0515025 L11.6305364,19.3796624 L12.1754695,17.1958048 C14.4208336,17.6207251 16.1092634,17.4493318 16.8199641,15.4184905 C17.3926501,13.7833164 16.7914611,12.8400909 15.6100853,12.2250254 C16.4704269,12.0266293 17.1184959,11.460694 17.2913894,10.2916945 L17.2913894,10.2916945 Z M14.2828189,14.5105188 C13.8759006,16.145693 11.1227324,15.2617238 10.2301373,15.0400752 L10.9532143,12.1413915 C11.8458094,12.3641652 14.7081142,12.8052122 14.2828189,14.5105188 L14.2828189,14.5105188 Z M14.6901123,10.268067 C14.3188228,11.7554754 12.0273287,10.9997699 11.2839995,10.8145002 L11.9395694,8.18547018 C12.6828985,8.37073991 15.0767785,8.71652674 14.6901123,10.268067 L14.6901123,10.268067 Z"/></svg>

<svg viewBox="0 0 24 24"><path fill="currentColor" fill-rule="evenodd" d="M23.64 14.905c-1.602 6.429-8.114 10.342-14.544 8.738C2.669 22.041-1.244 15.528.359 9.1C1.962 2.67 8.473-1.244 14.902.36c6.43 1.603 10.342 8.116 8.739 14.546zm-6.349-4.613c.24-1.597-.977-2.456-2.64-3.028l.54-2.164l-1.317-.328l-.525 2.106a55.083 55.083 0 0 0-1.055-.248l.53-2.12l-1.317-.328l-.54 2.162a44.05 44.05 0 0 1-.84-.197l.001-.007l-1.816-.453l-.35 1.406s.977.224.956.238c.534.133.63.486.614.766l-.615 2.464c.037.01.085.023.137.044l-.139-.035l-.86 3.453c-.066.162-.231.405-.604.312c.013.02-.957-.239-.957-.239l-.654 1.508l1.713.427c.32.08.632.163.94.242l-.546 2.188l1.316.328l.54-2.164c.359.097.707.187 1.049.272l-.538 2.155l1.317.328l.544-2.184c2.246.425 3.934.253 4.645-1.778c.573-1.635-.029-2.578-1.21-3.193c.86-.198 1.508-.764 1.681-1.933zm-3.008 4.219c-.407 1.635-3.16.75-4.053.53l.723-2.9c.893.223 3.755.664 3.33 2.37zm.407-4.243c-.371 1.487-2.663.732-3.406.547l.656-2.63c.743.186 3.137.532 2.75 2.083z"/></svg>
